flaticon/seo-and-analytics/smartphone-2.svg

<svg xmlns="http://www.w3.org/2000/svg" width="32" height="32" viewBox="0 0 24 24">
    <path d="M 12.398438 1.199219 L 11.601562 1.199219 C 11.359375 1.199219 11.199219 1.359375 11.199219 1.601562 C 11.199219 1.839844 11.359375 2 11.601562 2 L 12.398438 2 C 12.640625 2 12.800781 1.839844 12.800781 1.601562 C 12.800781 1.359375 12.640625 1.199219 12.398438 1.199219 Z M 12.398438 1.199219"/>
    <path d="M 19.238281 0 L 4.761719 0 C 3.878906 0 3.199219 0.71875 3.199219 1.601562 L 3.199219 22.398438 C 3.199219 23.28125 3.878906 24 4.761719 24 L 19.238281 24 C 20.121094 24 20.800781 23.28125 20.800781 22.398438 L 20.800781 1.601562 C 20.800781 0.71875 20.121094 0 19.238281 0 Z M 12.398438 22.800781 C 11.960938 22.800781 11.601562 22.441406 11.601562 22 C 11.601562 21.558594 11.960938 21.199219 12.398438 21.199219 C 12.839844 21.199219 13.199219 21.558594 13.199219 22 C 13.199219 22.441406 12.839844 22.800781 12.398438 22.800781 Z M 4 3.199219 L 20 3.199219 L 20 20 L 4 20 Z M 4 22.398438 L 4 20.800781 L 11.34375 20.800781 C 11.011719 21.09375 10.800781 21.523438 10.800781 22 C 10.800781 22.476562 11.011719 22.90625 11.34375 23.199219 L 4.761719 23.199219 C 4.359375 23.199219 4 22.839844 4 22.398438 Z M 20 22.398438 C 20 22.839844 19.640625 23.199219 19.238281 23.199219 L 13.453125 23.199219 C 13.789062 22.90625 14 22.476562 14 22 C 14 21.523438 13.789062 21.09375 13.453125 20.800781 L 20 20.800781 Z M 4 2.398438 L 4 1.601562 C 4 1.160156 4.359375 0.800781 4.761719 0.800781 L 19.238281 0.800781 C 19.640625 0.800781 20 1.160156 20 1.601562 L 20 2.398438 Z M 4 2.398438"/>
    <path d="M13.90625 12.265625L15.742188 10.796875C16.023438 11.046875 16.394531 11.199219 16.800781 11.199219 17.679688 11.199219 18.398438 10.480469 18.398438 9.601562 18.398438 8.71875 17.679688 8 16.800781 8 15.921875 8 15.199219 8.71875 15.199219 9.601562 15.199219 9.785156 15.234375 9.964844 15.292969 10.132812L13.457031 11.601562C13.175781 11.351562 12.804688 11.199219 12.398438 11.199219 11.847656 11.199219 11.355469 11.484375 11.070312 11.914062L8.792969 10.941406C8.796875 10.894531 8.800781 10.847656 8.800781 10.800781 8.800781 9.921875 8.078125 9.199219 7.199219 9.199219 6.320312 9.199219 5.601562 9.921875 5.601562 10.800781 5.601562 11.679688 6.320312 12.398438 7.199219 12.398438 7.753906 12.398438 8.242188 12.113281 8.53125 11.683594L10.804688 12.660156C10.800781 12.707031 10.800781 12.753906 10.800781 12.800781 10.800781 13.679688 11.519531 14.398438 12.398438 14.398438 13.28125 14.398438 14 13.679688 14 12.800781 14 12.613281 13.96875 12.433594 13.90625 12.265625zM7.199219 11.601562C6.761719 11.601562 6.398438 11.238281 6.398438 10.800781 6.398438 10.359375 6.761719 10 7.199219 10 7.640625 10 8 10.359375 8 10.800781 8 11.238281 7.640625 11.601562 7.199219 11.601562zM16.800781 8.800781C17.238281 8.800781 17.601562 9.160156 17.601562 9.601562 17.601562 10.039062 17.238281 10.398438 16.800781 10.398438 16.359375 10.398438 16 10.039062 16 9.601562 16 9.160156 16.359375 8.800781 16.800781 8.800781zM12.398438 13.601562C11.960938 13.601562 11.601562 13.238281 11.601562 12.800781 11.601562 12.359375 11.960938 12 12.398438 12 12.839844 12 13.199219 12.359375 13.199219 12.800781 13.199219 13.238281 12.839844 13.601562 12.398438 13.601562zM7.601562 5.601562L9.601562 5.601562C9.839844 5.601562 10 5.441406 10 5.199219 10 4.960938 9.839844 4.800781 9.601562 4.800781L7.601562 4.800781C7.359375 4.800781 7.199219 4.960938 7.199219 5.199219 7.199219 5.441406 7.359375 5.601562 7.601562 5.601562zM5.601562 5.601562L6 5.601562C6.238281 5.601562 6.398438 5.441406 6.398438 5.199219 6.398438 4.960938 6.238281 4.800781 6 4.800781L5.601562 4.800781C5.359375 4.800781 5.199219 4.960938 5.199219 5.199219 5.199219 5.441406 5.359375 5.601562 5.601562 5.601562zM7.199219 7.199219C7.441406 7.199219 7.601562 7.039062 7.601562 6.800781 7.601562 6.558594 7.441406 6.398438 7.199219 6.398438L5.601562 6.398438C5.359375 6.398438 5.199219 6.558594 5.199219 6.800781 5.199219 7.039062 5.359375 7.199219 5.601562 7.199219zM9.601562 6.398438L8.800781 6.398438C8.558594 6.398438 8.398438 6.558594 8.398438 6.800781 8.398438 7.039062 8.558594 7.199219 8.800781 7.199219L9.601562 7.199219C9.839844 7.199219 10 7.039062 10 6.800781 10 6.558594 9.839844 6.398438 9.601562 6.398438zM18.398438 16L16.398438 16C16.160156 16 16 16.160156 16 16.398438 16 16.640625 16.160156 16.800781 16.398438 16.800781L18.398438 16.800781C18.640625 16.800781 18.800781 16.640625 18.800781 16.398438 18.800781 16.160156 18.640625 16 18.398438 16zM14.398438 16C14.160156 16 14 16.160156 14 16.398438 14 16.640625 14.160156 16.800781 14.398438 16.800781L14.800781 16.800781C15.039062 16.800781 15.199219 16.640625 15.199219 16.398438 15.199219 16.160156 15.039062 16 14.800781 16zM16 17.601562L14.398438 17.601562C14.160156 17.601562 14 17.761719 14 18 14 18.238281 14.160156 18.398438 14.398438 18.398438L16 18.398438C16.238281 18.398438 16.398438 18.238281 16.398438 18 16.398438 17.761719 16.238281 17.601562 16 17.601562zM18.398438 17.601562L17.601562 17.601562C17.359375 17.601562 17.199219 17.761719 17.199219 18 17.199219 18.238281 17.359375 18.398438 17.601562 18.398438L18.398438 18.398438C18.640625 18.398438 18.800781 18.238281 18.800781 18 18.800781 17.761719 18.640625 17.601562 18.398438 17.601562zM18.398438 17.601562"/>
</svg>

<svg xmlns="http://www.w3.org/2000/svg" width="32" height="32" viewBox="0 0 24 24">
    <path d="M12.398 1.2h-.796c-.243 0-.403.16-.403.402 0 .238.16.398.403.398h.796c.243 0 .403-.16.403-.398 0-.243-.16-.403-.403-.403zm0 0"/>
    <path d="M19.238 0H4.762c-.883 0-1.563.719-1.563 1.602v20.796c0 .883.68 1.602 1.563 1.602h14.476c.883 0 1.563-.719 1.563-1.602V1.602C20.8.719 20.12 0 19.238 0zm-6.84 22.8a.801.801 0 0 1 0-1.6.802.802 0 0 1 0 1.6zM4 3.2h16V20H4zm0 19.198v-1.597h7.344a1.598 1.598 0 0 0 0 2.398H4.762c-.403 0-.762-.36-.762-.8zm16 0c0 .442-.36.801-.762.801h-5.785a1.588 1.588 0 0 0 0-2.398H20zm-16-20v-.796C4 1.16 4.36.8 4.762.8h14.476c.403 0 .762.36.762.8v.797zm0 0"/>
    <path d="M13.906 12.266l1.836-1.47c.281.25.653.403 1.059.403.879 0 1.597-.719 1.597-1.597 0-.883-.718-1.602-1.597-1.602-.88 0-1.602.719-1.602 1.602 0 .183.035.363.094.53l-1.836 1.47a1.589 1.589 0 0 0-1.059-.403c-.55 0-1.043.285-1.328.715l-2.277-.973c.004-.046.008-.093.008-.14 0-.88-.723-1.602-1.602-1.602-.879 0-1.597.723-1.597 1.602 0 .879.718 1.597 1.597 1.597.555 0 1.043-.285 1.332-.714l2.274.976c-.004.047-.004.094-.004.14 0 .88.719 1.598 1.597 1.598.883 0 1.602-.718 1.602-1.597 0-.188-.031-.367-.094-.535zM7.2 11.602a.807.807 0 0 1-.8-.801c0-.442.363-.801.8-.801.442 0 .801.36.801.8 0 .438-.36.802-.8.802zM16.801 8.8c.437 0 .8.36.8.8a.801.801 0 0 1-1.602 0c.001-.44.36-.8.802-.8zm-4.403 4.8a.801.801 0 0 1 0-1.602c.442.001.801.36.801.802 0 .437-.36.8-.8.8zm0 0M7.602 5.602h2c.238 0 .398-.16.398-.403 0-.238-.16-.398-.398-.398h-2c-.243 0-.403.16-.403.398 0 .242.16.403.403.403zm0 0M5.602 5.602H6c.238 0 .398-.16.398-.403 0-.238-.16-.398-.398-.398h-.398c-.243 0-.403.16-.403.398 0 .242.16.403.403.403zm0 0M7.2 7.2c.241 0 .402-.16.402-.4 0-.241-.16-.402-.403-.402H5.602c-.243 0-.403.16-.403.403 0 .238.16.398.403.398zm0 0M9.602 6.398H8.8c-.242 0-.403.16-.403.403 0 .238.16.398.403.398h.8c.239 0 .399-.16.399-.398 0-.242-.16-.403-.398-.403zm0 0M18.398 16h-2c-.238 0-.398.16-.398.398 0 .243.16.403.398.403h2c.243 0 .403-.16.403-.403 0-.238-.16-.398-.403-.398zm0 0M14.398 16c-.238 0-.398.16-.398.398 0 .243.16.403.398.403h.403c.238 0 .398-.16.398-.403 0-.238-.16-.398-.398-.398zm0 0M16 17.602h-1.602c-.238 0-.398.16-.398.398 0 .238.16.398.398.398H16c.238 0 .398-.16.398-.398 0-.238-.16-.398-.398-.398zm0 0M18.398 17.602h-.796c-.243 0-.403.16-.403.398 0 .238.16.398.403.398h.796c.243 0 .403-.16.403-.398 0-.238-.16-.398-.403-.398zm0 0"/>
</svg>
